X:1
T:Salmon Tails Up the Water
C:Northumbrian Rant
L:1/8
M:2/4
I:linebreak $
K:G
V:1 treble
V:1
"G"GE DE | G2 G>A | Bd AB/A/ |"C"GE D>E |"G"GE DE | G2 G>A |$
"D"Bd AB/A/ |"G"G2- GA :|: "G"Bd dc/A/ |"C"ce e2 |"G"dB AB/A/ |GE "D"ED |$
"G"Bd dc/B/ |"C"ce e>f |"G"gf ed |"D"ef "G"g2 |"G"Bd dc/A/ |"C"ce e2 |$
"G"dB AB/A/ | GE ED |"D"GE D>E |"G"G2 G>A |"D"Bd AB/A/ |"G"G4 |]
